X:8
T:Bhayamukta Sansār Aur Param Shānti Ko Sākār Karnā
M:4/4
L:1/8
Q:1/4=84
K:C
|: C,2 G,C EGCE | F,2 CF ACFA | G,2 DG BDGB | C,2 G,C EGCE :|
| c2 G2 E2 C2 | f2 c2 A2 F2 | g2 d2 B2 G2 | c4 C4 |
